lg/autoit.svg

<svg viewBox="0 0 256 256" version="1.1" xmlns="http://www.w3.org/2000/svg" preserveAspectRatio="xMidYMid" height="1em" width="1em">
  <g>
    <circle fill="#5D83AC" cx="128" cy="128" r="114.75"/>
    <path d="M0,128 C0,57.3075 57.3075,0 128,0 C198.6925,0 256,57.3075 256,128 C256,198.6925 198.6925,256 128,256 C57.3075,256 0,198.6925 0,128 Z M128,25.5 C71.39075,25.5 25.5,71.39075 25.5,128 C25.5,184.60925 71.39075,230.5 128,230.5 C184.60925,230.5 230.5,184.60925 230.5,128 C230.5,71.39075 184.60925,25.5 128,25.5 L128,25.5 Z" fill="#F0F0F0"/>
    <path d="M206.4105,166 L147.8905,81.3 C145.83625,78.314 143.3405,75.81825 140.4005,73.81 C137.4605,71.804 133.79625,70.8 129.4105,70.8 C124.83625,70.8 121.05625,71.874 118.0705,74.02 C115.08225,76.168 112.6105,78.594 110.6505,81.3 L50.5905,166 L84.8905,166 L128.8505,103.84 L145.6505,128.62 C147.23625,130.86 148.89225,133.264 150.6205,135.83 C152.34625,138.39825 153.86225,140.52 155.1705,142.2 C152.9305,142.014 150.29225,141.92 147.2605,141.92 L138.5105,141.92 L114.9905,141.92 L97.4905,166 L206.4105,166 L206.4105,166 Z" fill="#F0F0F0"/>
  </g>
</svg>

<svg viewBox="0 0 256 256" xmlns="http://www.w3.org/2000/svg" preserveAspectRatio="xMidYMid" height="1em" width="1em">
  <circle fill="#5D83AC" cx="128" cy="128" r="114.75"/>
  <path d="M0 128C0 57.308 57.307 0 128 0c70.692 0 128 57.307 128 128 0 70.692-57.308 128-128 128C57.308 256 0 198.692 0 128ZM128 25.5C71.39 25.5 25.5 71.39 25.5 128S71.39 230.5 128 230.5 230.5 184.61 230.5 128 184.61 25.5 128 25.5Z" fill="#F0F0F0"/>
  <path d="m206.41 166-58.52-84.7c-2.054-2.986-4.55-5.482-7.49-7.49-2.94-2.006-6.604-3.01-10.99-3.01-4.574 0-8.354 1.074-11.34 3.22-2.988 2.148-5.46 4.574-7.42 7.28L50.59 166h34.3l43.96-62.16 16.8 24.78a377.282 377.282 0 0 1 4.97 7.21c1.726 2.568 3.242 4.69 4.55 6.37-2.24-.186-4.878-.28-7.91-.28h-32.27L97.49 166h108.92Z" fill="#F0F0F0"/>
</svg>
